svg/成员管理.svg

<svg width="120" height="120" viewBox="0 0 120 120" fill="none" xmlns="http://www.w3.org/2000/svg">
<rect width="120" height="120" fill="#F5F5F5"/>
<g clip-path="url(#clip0_0_1)">
<rect width="1440" height="1024" transform="translate(-1066 -230)" fill="url(#paint0_linear_0_1)"/>
<rect width="1440" height="1024" transform="translate(-1066 -230)" fill="white"/>
<rect width="120" height="120" rx="30" fill="url(#paint1_linear_0_1)"/>
<path d="M60.4004 58C66.7504 58 71.9004 52.85 71.9004 46.5C71.9004 40.15 66.7504 35 60.4004 35C54.0504 35 48.9004 40.15 48.9004 46.5C48.9004 52.85 54.0504 58 60.4004 58Z" fill="url(#paint2_linear_0_1)" stroke="url(#paint3_linear_0_1)"/>
<path opacity="0.8" d="M35.79 58C40.21 58 43.79 54.42 43.79 50C43.79 45.58 40.21 42 35.79 42C31.37 42 27.79 45.58 27.79 50C27.79 54.42 31.37 58 35.79 58Z" fill="url(#paint4_linear_0_1)"/>
<path opacity="0.8" d="M85 58C80.58 58 77 54.42 77 50C77 45.58 80.58 42 85 42C89.42 42 93 45.58 93 50C93 54.42 89.42 58 85 58Z" fill="url(#paint5_linear_0_1)"/>
<path d="M79.6696 74.3C79.6696 74.3 79.6696 74.34 79.6796 74.37C80.1896 77.06 80.0296 82.32 75.9996 82.32H44.6496C41.3496 82.32 40.8896 78.86 40.8996 76.53C40.9096 74.2 41.3296 72.37 42.6196 70.37C43.7196 68.66 45.1596 67.15 46.8196 65.89C50.3596 63.19 54.8396 61.7 59.3796 61.51C59.7196 61.5 60.0596 61.49 60.3996 61.49C68.7596 61.49 78.0596 66.05 79.6796 74.3H79.6696Z" fill="url(#paint6_linear_0_1)" stroke="url(#paint7_linear_0_1)"/>
<path opacity="0.8" d="M39.2602 68.2C40.5902 66.14 42.4102 64.29 44.4902 62.7C44.5502 62.65 44.6102 62.62 44.6702 62.57C41.9902 61.2 38.7702 60.49 35.7902 60.49C35.5102 60.49 35.2402 60.49 34.9602 60.51C31.2802 60.67 27.6502 61.88 24.7902 64.06C23.4502 65.08 22.2802 66.3 21.3902 67.68C20.3502 69.3 20.0102 70.78 20.0002 72.67C19.9902 74.56 20.3702 77.36 23.0402 77.36H36.9202C36.9102 77.08 36.9002 76.8 36.9002 76.51C36.9202 73.23 37.6302 70.74 39.2602 68.2Z" fill="url(#paint8_linear_0_1)"/>
<path opacity="0.8" d="M100.62 70.92L100.61 70.86C99.3002 64.18 91.7602 60.49 85.0002 60.49C84.7202 60.49 84.4502 60.49 84.1702 60.51C81.4502 60.63 78.5302 61.32 76.1602 62.55C79.7302 65.19 82.6602 68.84 83.5902 73.47L83.6302 73.66C83.7302 74.19 83.9502 75.63 83.8802 77.36H97.6502C100.92 77.36 101.05 73.1 100.63 70.92H100.62Z" fill="url(#paint9_linear_0_1)"/>
</g>
<defs>
<linearGradient id="paint0_linear_0_1" x1="19" y1="19.5" x2="1412.5" y2="1024" gradientUnits="userSpaceOnUse">
<stop stop-color="#2E7EEA"/>
<stop offset="1" stop-color="#013F92"/>
</linearGradient>
<linearGradient id="paint1_linear_0_1" x1="60" y1="5.03077" x2="60" y2="119.458" gradientUnits="userSpaceOnUse">
<stop stop-color="#7E73F4"/>
<stop offset="1" stop-color="#44C5F5"/>
</linearGradient>
<linearGradient id="paint2_linear_0_1" x1="60.4004" y1="35" x2="60.4004" y2="58" gradientUnits="userSpaceOnUse">
<stop offset="0.127496" stop-color="white"/>
<stop offset="1" stop-color="#BAC9FF" stop-opacity="0.6"/>
</linearGradient>
<linearGradient id="paint3_linear_0_1" x1="60.4004" y1="35" x2="60.4004" y2="58" gradientUnits="userSpaceOnUse">
<stop offset="0.197115" stop-color="white"/>
<stop offset="1" stop-color="#859FFF"/>
</linearGradient>
<linearGradient id="paint4_linear_0_1" x1="35.4567" y1="42" x2="35.4567" y2="58" gradientUnits="userSpaceOnUse">
<stop stop-color="white"/>
<stop offset="1" stop-color="#D0DAFF"/>
</linearGradient>
<linearGradient id="paint5_linear_0_1" x1="84.6667" y1="42" x2="84.6667" y2="58" gradientUnits="userSpaceOnUse">
<stop stop-color="white"/>
<stop offset="1" stop-color="#D0DAFF"/>
</linearGradient>
<linearGradient id="paint6_linear_0_1" x1="60.3931" y1="61.49" x2="60.3931" y2="82.32" gradientUnits="userSpaceOnUse">
<stop offset="0.127496" stop-color="white"/>
<stop offset="1" stop-color="#BAC9FF" stop-opacity="0.6"/>
</linearGradient>
<linearGradient id="paint7_linear_0_1" x1="60.3931" y1="61.49" x2="60.3931" y2="82.32" gradientUnits="userSpaceOnUse">
<stop offset="0.197115" stop-color="white"/>
<stop offset="1" stop-color="#859FFF"/>
</linearGradient>
<linearGradient id="paint8_linear_0_1" x1="31.8211" y1="60.49" x2="31.8211" y2="77.36" gradientUnits="userSpaceOnUse">
<stop stop-color="white"/>
<stop offset="1" stop-color="#D0DAFF"/>
</linearGradient>
<linearGradient id="paint9_linear_0_1" x1="87.9676" y1="60.49" x2="87.9676" y2="77.36" gradientUnits="userSpaceOnUse">
<stop stop-color="white"/>
<stop offset="1" stop-color="#D0DAFF"/>
</linearGradient>
<clipPath id="clip0_0_1">
<rect width="1440" height="1024" fill="white" transform="translate(-1066 -230)"/>
</clipPath>
</defs>
</svg>

<svg fill="none" viewBox="0 0 120 120"><path fill="#F5F5F5" d="M0 0h120v120H0z"/><g clipPath="url(#a)"><path fill="url(#b)" d="M0 0h1440v1024H0z" transform="translate(-1066 -230)"/><path fill="white" d="M-1066-230H374V794h-1440z"/><rect width="120" height="120" fill="url(#c)" rx="30"/><path fill="url(#d)" stroke="url(#e)" d="M60.4 58c6.35 0 11.5-5.15 11.5-11.5S66.75 35 60.4 35s-11.5 5.15-11.5 11.5S54.05 58 60.4 58Z"/><path fill="url(#f)" d="M35.79 58c4.42 0 8-3.58 8-8s-3.58-8-8-8-8 3.58-8 8 3.58 8 8 8" opacity=".8"/><path fill="url(#g)" d="M85 58c-4.42 0-8-3.58-8-8s3.58-8 8-8 8 3.58 8 8-3.58 8-8 8" opacity=".8"/><path fill="url(#h)" stroke="url(#i)" d="M79.67 74.3s0 .04.01.07c.51 2.69.35 7.95-3.68 7.95H44.65c-3.3 0-3.76-3.46-3.75-5.79s.43-4.16 1.72-6.16c1.1-1.71 2.54-3.22 4.2-4.48 3.54-2.7 8.02-4.19 12.56-4.38.34-.01.68-.02 1.02-.02 8.36 0 17.66 4.56 19.28 12.81z"/><path fill="url(#j)" d="M39.26 68.2c1.33-2.06 3.15-3.91 5.23-5.5.06-.05.12-.08.18-.13-2.68-1.37-5.9-2.08-8.88-2.08-.28 0-.55 0-.83.02-3.68.16-7.31 1.37-10.17 3.55-1.34 1.02-2.51 2.24-3.4 3.62-1.04 1.62-1.38 3.1-1.39 4.99s.37 4.69 3.04 4.69h13.88c-.01-.28-.02-.56-.02-.85.02-3.28.73-5.77 2.36-8.31" opacity=".8"/><path fill="url(#k)" d="m100.62 70.92-.01-.06C99.3 64.18 91.76 60.49 85 60.49c-.28 0-.55 0-.83.02-2.72.12-5.64.81-8.01 2.04 3.57 2.64 6.5 6.29 7.43 10.92l.04.19c.1.53.32 1.97.25 3.7h13.77c3.27 0 3.4-4.26 2.98-6.44z" opacity=".8"/></g><defs><linearGradient id="b" x1="19" x2="1412.5" y1="19.5" y2="1024" gradientUnits="userSpaceOnUse"><stop stopColor="#2E7EEA"/><stop offset="1" stopColor="#013F92"/></linearGradient><linearGradient id="c" x1="60" x2="60" y1="5.031" y2="119.458" gradientUnits="userSpaceOnUse"><stop stopColor="#7E73F4"/><stop offset="1" stopColor="#44C5F5"/></linearGradient><linearGradient id="d" x1="60.4" x2="60.4" y1="35" y2="58" gradientUnits="userSpaceOnUse"><stop offset=".127" stopColor="white"/><stop offset="1" stopColor="#BAC9FF" stopOpacity=".6"/></linearGradient><linearGradient id="e" x1="60.4" x2="60.4" y1="35" y2="58" gradientUnits="userSpaceOnUse"><stop offset=".197" stopColor="white"/><stop offset="1" stopColor="#859FFF"/></linearGradient><linearGradient id="f" x1="35.457" x2="35.457" y1="42" y2="58" gradientUnits="userSpaceOnUse"><stop stopColor="white"/><stop offset="1" stopColor="#D0DAFF"/></linearGradient><linearGradient id="g" x1="84.667" x2="84.667" y1="42" y2="58" gradientUnits="userSpaceOnUse"><stop stopColor="white"/><stop offset="1" stopColor="#D0DAFF"/></linearGradient><linearGradient id="h" x1="60.393" x2="60.393" y1="61.49" y2="82.32" gradientUnits="userSpaceOnUse"><stop offset=".127" stopColor="white"/><stop offset="1" stopColor="#BAC9FF" stopOpacity=".6"/></linearGradient><linearGradient id="i" x1="60.393" x2="60.393" y1="61.49" y2="82.32" gradientUnits="userSpaceOnUse"><stop offset=".197" stopColor="white"/><stop offset="1" stopColor="#859FFF"/></linearGradient><linearGradient id="j" x1="31.821" x2="31.821" y1="60.49" y2="77.36" gradientUnits="userSpaceOnUse"><stop stopColor="white"/><stop offset="1" stopColor="#D0DAFF"/></linearGradient><linearGradient id="k" x1="87.968" x2="87.968" y1="60.49" y2="77.36" gradientUnits="userSpaceOnUse"><stop stopColor="white"/><stop offset="1" stopColor="#D0DAFF"/></linearGradient><clipPath id="a"><path fill="white" d="M-1066-230H374V794h-1440z"/></clipPath></defs></svg>
